X: 222
T: No_78_Bird_Dance_Song_(a).krn
N: Derived from No_78_Bird_Dance_Song_(a).krn
%%abc-version 2.0
%%abcx-abcm2ps-target-version 5.9.1 (29 Sep 2008)
%%abc-creator hum2abc beta
%%abcx-conversion-date 2019/03/15 08:38:45
%%humdrum-veritas 2039119964
%%humdrum-veritas-data 14885676
%%linebreak <none>
%%barnumbers 0
L: 1/8
M: 3/4
K: Db clef=bass
[K:clef=bass][M:3/4]F,3/F,/ F,3/A,/F,2 ||  
[M:2/4]D,3/D,/ D,3/D,/ | 
D,2z2 ]|:  
D,3/D,/ D,3/D,/ ||  
[M:3/4]A,3/A,/ (3(A,/G,)F, F,F, | 
A,3/G,/ F,3/D,/ D,D, | 
F,3/G,/ F,3/D,/ D,D,/ z/ ||  
[M:2/4]D,2(D,A,,) | 
D,4 ||  
[M:3/4](A,/F,)G,/ F,3/D,/ D,D, | 
F,3/G,/ F,3/D,/ D,D,/ z/ ||  
[M:2/4]D,2(D,A,,) ||  
[M:3/4]D,7/A,/ A,3/B,/ ||  
[M:2/4](A,7/F,/) | 
F,3/G,/F,2 | 
D,D, D,3/D,/ | 
D,2z2 :|]  
D,2z2 |]  



